static/icons/basic/connect.svg

<svg width="32" height="32" viewBox="0 0 32 32" fill="none" xmlns="http://www.w3.org/2000/svg">
<path d="M5.33268 24.0001V23.7334C5.33268 21.4932 5.33268 20.3731 5.76866 19.5175C6.15215 18.7648 6.76407 18.1529 7.51672 17.7694C8.37237 17.3334 9.49247 17.3334 11.7327 17.3334H20.266C22.5062 17.3334 23.6263 17.3334 24.482 17.7694C25.2346 18.1529 25.8465 18.7648 26.23 19.5175C26.666 20.3731 26.666 21.4932 26.666 23.7334V24.0001M5.33268 24.0001C3.85992 24.0001 2.66602 25.194 2.66602 26.6667C2.66602 28.1395 3.85992 29.3334 5.33268 29.3334C6.80544 29.3334 7.99935 28.1395 7.99935 26.6667C7.99935 25.194 6.80544 24.0001 5.33268 24.0001ZM26.666 24.0001C25.1933 24.0001 23.9993 25.194 23.9993 26.6667C23.9993 28.1395 25.1933 29.3334 26.666 29.3334C28.1388 29.3334 29.3327 28.1395 29.3327 26.6667C29.3327 25.194 28.1388 24.0001 26.666 24.0001ZM15.9993 24.0001C14.5266 24.0001 13.3327 25.194 13.3327 26.6667C13.3327 28.1395 14.5266 29.3334 15.9993 29.3334C17.4721 29.3334 18.666 28.1395 18.666 26.6667C18.666 25.194 17.4721 24.0001 15.9993 24.0001ZM15.9993 24.0001V10.6667M7.99935 10.6667H23.9993C25.2419 10.6667 25.8631 10.6667 26.3532 10.4638C27.0066 10.1931 27.5257 9.67398 27.7964 9.02057C27.9993 8.53051 27.9993 7.90926 27.9993 6.66675C27.9993 5.42424 27.9993 4.80298 27.7964 4.31293C27.5257 3.65952 27.0066 3.14039 26.3532 2.86974C25.8631 2.66675 25.2419 2.66675 23.9993 2.66675H7.99935C6.75684 2.66675 6.13558 2.66675 5.64553 2.86974C4.99212 3.14039 4.47299 3.65952 4.20234 4.31293C3.99935 4.80298 3.99935 5.42424 3.99935 6.66675C3.99935 7.90926 3.99935 8.53051 4.20234 9.02057C4.47299 9.67398 4.99212 10.1931 5.64553 10.4638C6.13558 10.6667 6.75684 10.6667 7.99935 10.6667Z" stroke="#121315" stroke-width="2.66667" stroke-linecap="round" stroke-linejoin="round"/>
</svg>

<svg xmlns="http://www.w3.org/2000/svg" width="32" height="32" fill="none"><path stroke="#121315" stroke-linecap="round" stroke-linejoin="round" stroke-width="2.667" d="M5.333 24v-.267c0-2.24 0-3.36.436-4.216a4 4 0 0 1 1.748-1.748c.855-.436 1.975-.436 4.216-.436h8.533c2.24 0 3.36 0 4.216.436a4 4 0 0 1 1.748 1.749c.436.855.436 1.975.436 4.215V24M5.333 24a2.667 2.667 0 1 0 0 5.333 2.667 2.667 0 0 0 0-5.333m21.333 0a2.667 2.667 0 1 0 0 5.334 2.667 2.667 0 0 0 0-5.334m-10.667 0a2.667 2.667 0 1 0 0 5.333A2.667 2.667 0 0 0 16 24m0 0V10.667m-8 0h16c1.243 0 1.864 0 2.354-.203a2.667 2.667 0 0 0 1.443-1.443C28 8.53 28 7.909 28 6.667c0-1.243 0-1.864-.203-2.354a2.667 2.667 0 0 0-1.443-1.443c-.49-.203-1.111-.203-2.354-.203H8c-1.242 0-1.863 0-2.353.203-.654.27-1.173.79-1.444 1.443C4 4.803 4 5.424 4 6.667c0 1.242 0 1.864.203 2.354.271.653.79 1.172 1.444 1.443.49.203 1.11.203 2.353.203"/></svg>
